neru-light-classic/32x32/apps/photocollage.svg

<?xml version="1.0" encoding="UTF-8" standalone="no"?>
<svg
   xmlns:dc="http://purl.org/dc/elements/1.1/"
   xmlns:cc="http://creativecommons.org/ns#"
   xmlns:rdf="http://www.w3.org/1999/02/22-rdf-syntax-ns#"
   xmlns:svg="http://www.w3.org/2000/svg"
   xmlns="http://www.w3.org/2000/svg"
   xmlns:sodipodi="http://sodipodi.sourceforge.net/DTD/sodipodi-0.dtd"
   xmlns:inkscape="http://www.inkscape.org/namespaces/inkscape"
   width="32"
   height="32"
   version="1"
   id="svg22"
   sodipodi:docname="photocollage.svg"
   inkscape:version="0.92.1 r">
  <metadata
     id="metadata28">
    <rdf:RDF>
      <cc:Work
         rdf:about="">
        <dc:format>image/svg+xml</dc:format>
        <dc:type
           rdf:resource="http://purl.org/dc/dcmitype/StillImage" />
      </cc:Work>
    </rdf:RDF>
  </metadata>
  <defs
     id="defs26" />
  <sodipodi:namedview
     pagecolor="#ffffff"
     bordercolor="#666666"
     borderopacity="1"
     objecttolerance="10"
     gridtolerance="10"
     guidetolerance="10"
     inkscape:pageopacity="0"
     inkscape:pageshadow="2"
     inkscape:window-width="640"
     inkscape:window-height="480"
     id="namedview24"
     showgrid="false"
     inkscape:zoom="8.375"
     inkscape:cx="-22.327511"
     inkscape:cy="10.958282"
     inkscape:current-layer="svg22" />
  <rect
     style="opacity:1;fill:#ffffff;fill-opacity:1;fill-rule:evenodd;stroke:none;stroke-width:1.03534329;stroke-linecap:round;stroke-linejoin:bevel;stroke-miterlimit:4;stroke-dasharray:none;stroke-dashoffset:0;stroke-opacity:1"
     id="rect4497-3-3-2"
     width="28.203388"
     height="28.203388"
     x="1.8983059"
     y="1.8983059"
     ry="5.575182" />
  <path
     style="opacity:1;fill:#5fb319;fill-opacity:1;fill-rule:evenodd;stroke:none;stroke-width:1.03534329;stroke-linecap:round;stroke-linejoin:bevel;stroke-miterlimit:4;stroke-dasharray:none;stroke-dashoffset:0;stroke-opacity:1"
     d="M 30.101562 9.8984375 L 30.101562 7.4726562 C 30.101563 4.3840054 27.615995 1.8984375 24.527344 1.8984375 L 20.068359 1.8984375 L 20.068359 9.8984375 L 30.101562 9.8984375 z "
     id="path4566" />
  <path
     style="opacity:1;fill:#e74b4b;fill-opacity:1;fill-rule:evenodd;stroke:none;stroke-width:1.03534329;stroke-linecap:round;stroke-linejoin:bevel;stroke-miterlimit:4;stroke-dasharray:none;stroke-dashoffset:0;stroke-opacity:1"
     d="M 14.982422 30.101562 L 24.527344 30.101562 C 27.615995 30.101563 30.101562 27.615995 30.101562 24.527344 L 30.101562 12.949219 L 20.068359 12.949219 L 17.017578 12.949219 L 14.982422 12.949219 L 14.982422 30.101562 z "
     id="path4564" />
  <path
     style="opacity:1;fill:#35abe4;fill-opacity:1;fill-rule:evenodd;stroke:none;stroke-width:1.03534329;stroke-linecap:round;stroke-linejoin:bevel;stroke-miterlimit:4;stroke-dasharray:none;stroke-dashoffset:0;stroke-opacity:1"
     d="M 1.8984375 12.949219 L 1.8984375 24.527344 C 1.8984375 27.615995 4.3840054 30.101562 7.4726562 30.101562 L 11.931641 30.101562 L 11.931641 12.949219 L 1.8984375 12.949219 z "
     id="path4562" />
  <path
     style="opacity:1;fill:#ffc129;fill-opacity:1;fill-rule:evenodd;stroke:none;stroke-width:1.03534329;stroke-linecap:round;stroke-linejoin:bevel;stroke-miterlimit:4;stroke-dasharray:none;stroke-dashoffset:0;stroke-opacity:1"
     d="M 17.017578 1.8984375 L 7.4726562 1.8984375 C 4.3840054 1.8984375 1.8984375 4.3840054 1.8984375 7.4726562 L 1.8984375 9.8984375 L 17.017578 9.8984375 L 17.017578 1.8984375 z "
     id="path4560" />
  <path
     style="opacity:1;fill:#ffffff;fill-opacity:1;fill-rule:evenodd;stroke:none;stroke-width:1.03534329;stroke-linecap:round;stroke-linejoin:bevel;stroke-miterlimit:4;stroke-dasharray:none;stroke-dashoffset:0;stroke-opacity:1"
     d="M 17.017578 1.8984375 L 17.017578 9.8984375 L 1.8984375 9.8984375 L 1.8984375 12.949219 L 11.931641 12.949219 L 11.931641 30.101562 L 14.982422 30.101562 L 14.982422 12.949219 L 17.017578 12.949219 L 20.068359 12.949219 L 30.101562 12.949219 L 30.101562 9.8984375 L 20.068359 9.8984375 L 20.068359 1.8984375 L 17.017578 1.8984375 z "
     id="rect4497-3-3" />
  <rect
     style="fill:#ffffff"
     width="28"
     height="3"
     x="-58.298504"
     y="22.656715"
     id="rect16-5" />
</svg>

<svg xmlns="http://www.w3.org/2000/svg" width="32" height="32" version="1"><rect width="28.203" height="28.203" x="1.898" y="1.898" ry="5.575" fill="#fff" fill-rule="evenodd"/><path d="M30.102 9.898V7.473a5.561 5.561 0 0 0-5.575-5.575h-4.459v8h10.034z" fill="#5fb319" fill-rule="evenodd"/><path d="M14.982 30.102h9.545a5.561 5.561 0 0 0 5.575-5.575V12.95h-15.12v17.153z" fill="#e74b4b" fill-rule="evenodd"/><path d="M1.898 12.95v11.577a5.561 5.561 0 0 0 5.575 5.575h4.459V12.949H1.898z" fill="#35abe4" fill-rule="evenodd"/><path d="M17.018 1.898H7.473a5.561 5.561 0 0 0-5.575 5.575v2.425h15.12v-8z" fill="#ffc129" fill-rule="evenodd"/><path d="M17.018 1.898v8H1.898v3.051h10.034v17.153h3.05V12.949H30.102V9.9H20.068v-8h-3.05z" fill="#fff" fill-rule="evenodd"/><path fill="#fff" d="M-58.299 22.657h28v3h-28z"/></svg>
